Catalina-light/apps/scalable/zotero.svg

<?xml version="1.0" encoding="UTF-8" standalone="no"?>
<!-- Created with Inkscape (http://www.inkscape.org/) -->

<svg
   xmlns:dc="http://purl.org/dc/elements/1.1/"
   xmlns:cc="http://creativecommons.org/ns#"
   xmlns:rdf="http://www.w3.org/1999/02/22-rdf-syntax-ns#"
   xmlns:svg="http://www.w3.org/2000/svg"
   xmlns="http://www.w3.org/2000/svg"
   xmlns:xlink="http://www.w3.org/1999/xlink"
   xmlns:sodipodi="http://sodipodi.sourceforge.net/DTD/sodipodi-0.dtd"
   xmlns:inkscape="http://www.inkscape.org/namespaces/inkscape"
   version="1.1"
   id="svg2"
   width="136.53333"
   height="136.53333"
   viewBox="0 0 136.53333 136.53333"
   sodipodi:docname="zotero.svg"
   inkscape:version="0.92.2 2405546, 2018-03-11">
  <metadata
     id="metadata8">
    <rdf:RDF>
      <cc:Work
         rdf:about="">
        <dc:format>image/svg+xml</dc:format>
        <dc:type
           rdf:resource="http://purl.org/dc/dcmitype/StillImage" />
        <dc:title></dc:title>
      </cc:Work>
    </rdf:RDF>
  </metadata>
  <defs
     id="defs6">
    <linearGradient
       inkscape:collect="always"
       id="linearGradient4313">
      <stop
         style="stop-color:#df0a61;stop-opacity:1"
         offset="0"
         id="stop4315" />
      <stop
         style="stop-color:#f44e8a;stop-opacity:1"
         offset="1"
         id="stop4317" />
    </linearGradient>
    <linearGradient
       inkscape:collect="always"
       id="linearGradient4180">
      <stop
         style="stop-color:#f5f5f5;stop-opacity:1;"
         offset="0"
         id="stop4182" />
      <stop
         style="stop-color:#ebeae6;stop-opacity:1"
         offset="1"
         id="stop4184" />
    </linearGradient>
    <linearGradient
       inkscape:collect="always"
       xlink:href="#linearGradient4180"
       id="linearGradient4186"
       x1="30.858253"
       y1="16.587393"
       x2="116.88322"
       y2="116.384"
       gradientUnits="userSpaceOnUse" />
    <linearGradient
       inkscape:collect="always"
       xlink:href="#linearGradient4313"
       id="linearGradient4319"
       x1="66.280823"
       y1="128.61551"
       x2="64.943542"
       y2="16.578243"
       gradientUnits="userSpaceOnUse" />
  </defs>
  <sodipodi:namedview
     pagecolor="#ffffff"
     bordercolor="#666666"
     borderopacity="1"
     objecttolerance="10"
     gridtolerance="10"
     guidetolerance="10"
     inkscape:pageopacity="0"
     inkscape:pageshadow="2"
     inkscape:window-width="1920"
     inkscape:window-height="1031"
     id="namedview4"
     showgrid="false"
     inkscape:zoom="3.3510238"
     inkscape:cx="31.722464"
     inkscape:cy="36.520055"
     inkscape:window-x="0"
     inkscape:window-y="26"
     inkscape:window-maximized="1"
     inkscape:current-layer="svg2"
     showguides="false" />
  <circle
     id="path12"
     cx="68.953224"
     cy="68.365921"
     r="64.021523"
     style="fill:url(#linearGradient4319);fill-opacity:1;stroke:url(#linearGradient4186);stroke-width:6;stroke-miterlimit:4;stroke-dasharray:none;stroke-opacity:1" />
  <path
     style="fill:#000000;stroke-width:1.33333337"
     d=""
     id="path849"
     inkscape:connector-curvature="0" />
  <path
     style="fill:#000000;stroke-width:1.33333337"
     d=""
     id="path847"
     inkscape:connector-curvature="0" />
  <path
     style="fill:#ffffff;fill-opacity:1;stroke-width:2.05940366"
     d="m 69.176465,27.181683 a 9.4024136,9.3659622 0 0 0 -4.923271,1.246905 l -27.669202,15.91211 a 9.4024136,9.3659622 0 0 0 -4.698015,8.112925 v 31.824223 a 9.4024136,9.3659622 0 0 0 4.698015,8.108902 l 27.669202,15.912112 a 9.4024136,9.3659622 0 0 0 9.400065,0 L 101.31844,92.386748 a 9.4024136,9.3659622 0 0 0 4.70203,-8.108902 V 52.453623 a 9.4024136,9.3659622 0 0 0 -4.70203,-8.112925 L 73.653259,28.428588 A 9.4024136,9.3659622 0 0 0 69.176465,27.181683 Z M 48.361207,43.65289 h 4.118808 32.950459 a 4.1192194,4.1192194 0 0 1 3.213782,6.693063 L 61.047443,84.840965 h 24.383031 4.118808 V 93.07858 H 85.430474 52.480015 A 4.1192194,4.1192194 0 0 1 49.262196,86.385518 L 76.859009,51.890506 H 52.480015 48.361207 Z"
     id="path827"
     inkscape:connector-curvature="0" />
</svg>

<svg width="136.53" height="136.53" version="1.1" viewBox="0 0 136.53 136.53" xmlns="http://www.w3.org/2000/svg">
<defs>
<linearGradient id="linearGradient4186" x1="30.858" x2="116.88" y1="16.587" y2="116.38" gradientUnits="userSpaceOnUse"/>
<linearGradient id="linearGradient4319" x1="66.281" x2="64.944" y1="128.62" y2="16.578" gradientUnits="userSpaceOnUse"/>
</defs>
<circle cx="68.953" cy="68.366" r="64.022" fill="url(#linearGradient4319)" stroke="url(#linearGradient4186)" stroke-width="6"/>
<path d="m69.176 27.182a9.4024 9.366 0 0 0-4.9233 1.2469l-27.669 15.912a9.4024 9.366 0 0 0-4.698 8.1129v31.824a9.4024 9.366 0 0 0 4.698 8.1089l27.669 15.912a9.4024 9.366 0 0 0 9.4001 0l27.665-15.912a9.4024 9.366 0 0 0 4.702-8.1089v-31.824a9.4024 9.366 0 0 0-4.702-8.1129l-27.665-15.912a9.4024 9.366 0 0 0-4.4768-1.2469zm-20.815 16.471h37.069a4.1192 4.1192 0 0 1 3.2138 6.6931l-27.597 34.495h28.502v8.2376h-37.069a4.1192 4.1192 0 0 1-3.2178-6.6931l27.597-34.495h-28.498z" fill="#fff" stroke-width="2.0594"/>
</svg>
